frontend/public/svg/hand gestures/folded-hands.svg

<svg width="145" height="163" viewBox="0 0 145 163" fill="none" xmlns="http://www.w3.org/2000/svg">
<g clip-path="url(#clip0)">
<path d="M2.80591 124.279L4.16922 126.165C8.63557 132.343 13.2548 138.733 17.9693 144.888C21.4151 149.385 25.0729 153.66 29.1527 158.383C31.5208 161.123 33.1314 161.504 36.0442 160.012C42.0063 157.041 47.4438 153.117 52.1428 148.395C53.6379 146.874 53.9804 145.259 53.2551 143.16C53.066 142.643 52.8502 142.136 52.6081 141.643C52.5274 141.47 52.4441 141.292 52.3594 141.106C53.1286 140.533 53.9031 139.974 54.6736 139.418C56.5494 138.065 58.4888 136.666 60.2425 135.123C62.9085 132.858 65.3548 130.347 67.5482 127.622C68.9002 125.759 70.0974 123.788 71.1279 121.73C71.5098 121.019 71.9023 120.286 72.3132 119.554C74.5093 126.468 78.9317 132.278 86.1711 137.784C87.3853 138.707 88.572 139.697 89.7153 140.654C90.1905 141.048 90.6624 141.442 91.133 141.831C91.1101 141.953 91.0923 142.066 91.0766 142.17C91.0628 142.358 91.0169 142.543 90.9407 142.715C89.3412 145.355 89.6937 147.755 92.0079 150.051C96.5025 154.496 101.581 158.309 107.104 161.385C107.927 161.872 108.862 162.14 109.818 162.161C110.545 162.137 111.258 161.96 111.911 161.642C112.564 161.324 113.143 160.872 113.609 160.314L114.493 159.372C116.098 157.665 117.758 155.899 119.27 154.055C127.157 144.436 134.099 135.884 140.491 127.912C141.657 126.37 142.657 124.711 143.476 122.961C144.377 121.16 143.976 119.645 142.285 118.458C140.567 117.254 138.883 115.934 137.253 114.657C136.528 114.088 135.801 113.52 135.07 112.96C134.317 112.381 133.571 111.797 132.824 111.211C131.122 109.877 129.363 108.497 127.558 107.238C124.342 104.993 122.942 105.097 120.069 107.799C119.665 108.179 119.243 108.531 118.711 108.98C118.514 109.147 118.298 109.325 118.068 109.52C117.952 109.364 117.841 109.214 117.732 109.067C117.39 108.605 117.067 108.166 116.714 107.765C110.545 100.651 105.825 92.3991 102.822 83.4742C96.4494 65.1399 92.2967 46.1081 90.4531 26.7856C89.8492 21.0847 88.7663 15.4448 87.216 9.9256C86.6837 7.9113 85.289 5.70075 83.0712 3.35697C80.8791 1.04141 77.875 0.958734 75.0324 3.13712C74.7344 3.36552 74.4456 3.60507 74.1634 3.84004L74.019 3.9595C71.8196 1.96292 69.7134 1.07162 67.7517 1.31184C65.8174 1.54878 64.0521 2.88309 62.5012 5.27807C60.8454 7.85439 59.6534 10.7009 58.9798 13.6884C57.7203 19.4399 56.6779 25.5845 55.8811 31.9497C54.2534 44.9524 50.7618 57.2968 47.0168 69.8486C42.9586 83.4578 38.3969 93.1289 32.2254 101.206C30.4179 103.573 28.4471 105.81 26.327 107.901L25.8412 107.38C25.4126 106.921 25.0603 106.537 24.7 106.164C21.9985 103.365 20.6056 103.198 17.2524 105.264C16.4228 105.775 15.622 106.352 14.8475 106.909L14.7354 106.989C13.4122 107.941 12.0918 108.896 10.7739 109.854C7.87816 111.955 4.88325 114.126 1.90216 116.207C0.40768 117.251 -0.0413887 118.546 0.567693 120.058C1.13767 121.552 1.88946 122.969 2.80591 124.279ZM70.5523 64.2992L70.5129 64.3242C70.4558 64.3603 70.3606 64.42 70.3514 64.4272C64.3193 63.574 60.5157 65.5699 58.0235 70.8955C57.0174 73.0516 56.2606 75.3159 55.7677 77.644C53.7285 87.3656 53.1567 96.0411 54.0198 104.165L54.0416 104.371C54.0838 105.345 54.2981 106.304 54.6748 107.203C54.9995 107.733 55.4459 108.177 55.977 108.499C56.1837 108.649 56.3905 108.799 56.5756 108.959L56.8381 109.186L57.0573 108.916C57.2476 108.693 57.45 108.48 57.6633 108.279C58.2187 107.855 58.6183 107.26 58.7994 106.585C58.9825 104.93 59.0153 103.238 59.0462 101.602C59.0633 100.683 59.081 99.7586 59.1244 98.8391C59.396 91.5741 60.4587 84.3596 62.2942 77.325C62.8843 75.3356 63.8194 73.4657 65.0567 71.8006C65.1905 71.5545 65.3781 71.3418 65.6054 71.179C65.8325 71.0156 66.0938 70.9053 66.3694 70.8568C66.9129 70.8666 67.411 71.4475 67.7339 71.9292C69.1234 74.0151 70.3389 76.1351 69.9556 79.1286C68.7611 88.4585 67.8888 97.8342 66.9536 108.249C66.0885 117.875 61.7324 125.169 53.6372 130.547C52.2471 131.47 50.9082 132.485 49.4912 133.559C48.8899 134.015 48.2709 134.483 47.6231 134.965L29.9789 112.177C30.8052 111.258 31.6316 110.365 32.4507 109.477C34.3915 107.373 36.2246 105.385 37.9639 103.248C45.7402 93.6895 49.9985 82.2173 53.4423 71.2447C58.4618 55.2833 62.1221 38.9259 64.3841 22.3475C64.8594 19.3997 65.5485 16.4904 66.4455 13.6424C66.6379 12.9756 66.8302 12.3101 67.0166 11.6445C67.2896 10.8317 67.6604 10.0551 68.1212 9.33227C68.2524 9.10846 68.3837 8.8794 68.515 8.63983C71.8498 18.1948 71.3484 51.842 70.5523 64.2992ZM6.75162 119.629L19.1422 110.805L46.3145 145.629L34.431 154.398L6.75162 119.629ZM77.071 78.6022L77.2994 75.0954C77.3066 74.9116 77.327 74.7285 77.3598 74.548L77.4418 74.1372C77.6702 72.9649 77.8862 71.8584 79.0905 71.5919C79.2343 71.5591 79.3813 71.5427 79.5283 71.542C80.4367 71.542 81.1692 72.2246 81.7133 73.5767C82.661 75.8253 83.3981 78.1572 83.9159 80.5417C85.4236 88.5799 86.0878 96.7533 85.8988 104.929C85.8988 105.148 85.8784 105.372 85.862 105.597C85.774 106.194 85.8101 106.802 85.967 107.385C86.2131 108.086 86.8485 109.323 87.6735 109.505C88.4716 109.682 89.5815 108.68 89.9812 108.07C90.4294 107.236 90.6867 106.311 90.7353 105.365C92.0138 95.6158 91.5157 85.7163 89.2638 76.1449C88.5431 73.408 87.3814 70.8069 85.8246 68.4434C84.2992 66.0609 81.7874 64.7147 77.9341 64.2225V63.343C77.9341 62.5212 77.9341 61.7192 77.9341 60.9145L77.8927 54.3511C77.8461 46.9962 77.7923 39.6415 77.7306 32.287C77.7083 29.9334 77.6118 28.0011 77.4261 26.2047C76.9109 20.9815 77.2712 15.7088 78.4926 10.6043C78.5878 10.245 78.704 9.89167 78.8405 9.54624C78.8772 9.44582 78.9166 9.33949 78.958 9.22594C79.0597 9.34474 79.1581 9.45697 79.2527 9.56396C79.571 9.8645 79.823 10.2271 79.995 10.6292C80.1919 11.3249 80.4006 12.02 80.6067 12.7157C81.4068 15.2113 82.0441 17.756 82.5153 20.3338C83.0758 23.8557 83.5392 27.4597 83.9881 30.9442C84.6963 36.4469 85.4281 42.136 86.561 47.6545C89.5854 62.3795 92.7909 76.7304 98.7249 90.3999C102.089 98.4394 107.003 105.739 113.184 111.882C113.554 112.257 113.905 112.652 114.234 113.063C114.369 113.226 114.51 113.396 114.661 113.573L96.41 135.725C87.0191 129.627 78.3095 122.109 77.7221 108.719C77.6053 106.051 77.365 103.347 77.1314 100.733C76.6916 95.7766 76.2374 90.6519 76.6063 85.5824C76.7711 83.255 76.9207 80.9257 77.071 78.5996V78.6022ZM97.5487 146.422C97.6564 146.261 97.7627 146.099 97.869 145.937C98.2175 145.384 98.5976 144.852 99.0065 144.342C106.342 135.568 113.687 126.802 121.15 117.897L125.498 112.708L137.356 121.692C129.805 131.41 122.06 140.313 113.866 149.734C112.163 151.691 110.457 153.656 108.747 155.631L97.8513 147.164L97.6833 146.776C97.638 146.683 97.5999 146.588 97.5711 146.489C97.556 146.466 97.5514 146.441 97.5461 146.419L97.5487 146.422Z" fill="black"/>
<path d="M37.0352 148.643C37.5578 148.639 38.074 148.528 38.552 148.316C39.0301 148.105 39.4599 147.799 39.8147 147.415C40.1695 147.031 40.4415 146.578 40.6146 146.086C40.7878 145.593 40.858 145.069 40.821 144.548C40.7908 143.505 40.3595 142.514 39.6167 141.781C38.8738 141.049 37.8768 140.631 36.8336 140.616H36.7884C36.3138 140.596 35.8401 140.674 35.3966 140.844C34.9531 141.014 34.5492 141.273 34.2095 141.605C33.8413 142.037 33.564 142.537 33.3942 143.078C33.2245 143.619 33.1659 144.189 33.2218 144.753C33.2 145.307 33.2901 145.86 33.4863 146.378C33.6824 146.897 33.9809 147.371 34.364 147.772C35.0411 148.373 35.926 148.686 36.8304 148.644C36.8974 148.647 36.9663 148.645 37.0352 148.643Z" fill="black"/>
<path d="M106.699 149.935H106.785C109.017 149.89 110.349 148.34 110.352 145.788C110.352 143.459 109.051 142.025 106.866 141.954C106.324 141.936 105.783 142.03 105.279 142.23C104.774 142.431 104.316 142.733 103.934 143.119C103.543 143.51 103.236 143.976 103.032 144.489C102.827 145.002 102.73 145.552 102.746 146.104C102.77 147.134 103.197 148.113 103.937 148.83C104.677 149.547 105.669 149.944 106.699 149.935Z" fill="black"/>
</g>
<defs>
<clipPath id="clip0">
<rect width="144.394" height="161.459" fill="white" transform="translate(0.15564 0.853027)"/>
</clipPath>
</defs>
</svg>

<svg xmlns="http://www.w3.org/2000/svg" width="145" height="163" fill="none" viewBox="0 0 145 163"><g fill="#000" clip-path="url(#a)"><path d="m2.806 124.279 1.363 1.886c4.467 6.178 9.086 12.568 13.8 18.723 3.446 4.497 7.104 8.772 11.184 13.495 2.368 2.74 3.978 3.121 6.891 1.629a61.3 61.3 0 0 0 16.099-11.617c1.495-1.521 1.837-3.136 1.112-5.235a16 16 0 0 0-.647-1.517l-.249-.537c.77-.573 1.544-1.132 2.315-1.688 1.875-1.353 3.815-2.752 5.569-4.295a55.5 55.5 0 0 0 7.305-7.501 42 42 0 0 0 3.58-5.892c.382-.711.774-1.444 1.185-2.176 2.196 6.914 6.619 12.724 13.858 18.23 1.214.923 2.401 1.913 3.544 2.87l1.418 1.177q-.033.183-.056.339c-.014.188-.06.373-.136.545-1.6 2.64-1.247 5.04 1.067 7.336a69.7 69.7 0 0 0 15.096 11.334 5.6 5.6 0 0 0 2.714.776 5.17 5.17 0 0 0 3.791-1.847l.884-.942c1.605-1.707 3.265-3.473 4.777-5.317a3072 3072 0 0 0 21.221-26.143 27.6 27.6 0 0 0 2.985-4.951c.901-1.801.5-3.316-1.191-4.503-1.718-1.204-3.402-2.524-5.032-3.801a236 236 0 0 0-2.183-1.697 293 293 0 0 1-2.246-1.749c-1.702-1.334-3.461-2.714-5.266-3.973-3.216-2.245-4.616-2.141-7.489.561-.404.38-.826.732-1.358 1.181l-.643.54-.336-.453c-.342-.462-.665-.901-1.018-1.302a72.3 72.3 0 0 1-13.892-24.29 243 243 0 0 1-12.369-56.69 102 102 0 0 0-3.237-16.86c-.532-2.014-1.927-4.224-4.145-6.568-2.192-2.316-5.196-2.398-8.039-.22a28 28 0 0 0-.869.703l-.144.12c-2.2-1.997-4.306-2.888-6.267-2.648-1.935.237-3.7 1.571-5.25 3.966a26.2 26.2 0 0 0-3.522 8.41c-1.26 5.752-2.302 11.896-3.099 18.262-1.628 13.002-5.12 25.347-8.864 37.899-4.058 13.609-8.62 23.28-14.792 31.357a64 64 0 0 1-5.898 6.695l-.486-.521c-.428-.459-.78-.843-1.141-1.216-2.701-2.799-4.094-2.966-7.448-.9-.83.511-1.63 1.088-2.404 1.645l-.113.08a1000 1000 0 0 0-3.961 2.865c-2.896 2.101-5.89 4.272-8.872 6.353-1.494 1.044-1.943 2.339-1.334 3.851a19.5 19.5 0 0 0 2.238 4.221m67.746-59.98-.04.025c-.056.036-.151.096-.16.103-6.033-.853-9.836 1.143-12.329 6.468a31.3 31.3 0 0 0-2.255 6.749c-2.04 9.722-2.611 18.397-1.748 26.521l.022.206c.042.974.256 1.933.633 2.832.325.53.77.974 1.302 1.296.207.15.414.3.599.46l.262.227.22-.27q.285-.335.605-.637a3.16 3.16 0 0 0 1.136-1.694c.184-1.655.216-3.347.247-4.983.017-.919.035-1.843.078-2.763a100 100 0 0 1 3.17-21.514c.59-1.99 1.525-3.86 2.763-5.524a1.85 1.85 0 0 1 1.312-.944c.544.01 1.042.59 1.365 1.072 1.39 2.086 2.605 4.206 2.222 7.2-1.195 9.33-2.067 18.705-3.002 29.12-.865 9.626-5.222 16.92-13.317 22.298-1.39.923-2.729 1.938-4.146 3.012-.601.456-1.22.924-1.868 1.406L29.98 112.177c.826-.919 1.653-1.812 2.472-2.7 1.94-2.104 3.774-4.092 5.513-6.229C45.741 93.689 50 82.218 53.443 71.245a296.7 296.7 0 0 0 10.942-48.898 62 62 0 0 1 2.061-8.705q.29-1 .572-1.997a10.6 10.6 0 0 1 1.104-2.313q.197-.335.394-.692c3.335 9.555 2.833 43.202 2.037 55.66m-63.8 55.33 12.39-8.824 27.173 34.824-11.884 8.769zM77.07 78.602l.228-3.507q.012-.276.06-.547l.083-.41c.228-1.173.444-2.28 1.649-2.546q.216-.05.437-.05c.909 0 1.641.683 2.185 2.035a39.5 39.5 0 0 1 2.203 6.965 117.6 117.6 0 0 1 1.983 24.387c0 .219-.02.443-.037.668a4.4 4.4 0 0 0 .105 1.788c.246.701.882 1.938 1.707 2.12.798.177 1.907-.825 2.307-1.435a6.4 6.4 0 0 0 .754-2.705 81.4 81.4 0 0 0-1.471-29.22 26 26 0 0 0-3.44-7.702c-1.525-2.382-4.037-3.728-7.89-4.22v-3.309l-.041-6.563q-.07-11.033-.162-22.064c-.023-2.354-.12-4.286-.305-6.082a47.2 47.2 0 0 1 1.067-15.6 10 10 0 0 1 .348-1.059l.117-.32q.153.178.295.338c.318.3.57.663.742 1.065.197.696.406 1.391.612 2.087.8 2.495 1.437 5.04 1.908 7.618.56 3.522 1.024 7.126 1.473 10.61.708 5.503 1.44 11.192 2.573 16.71C89.585 62.38 92.791 76.73 98.725 90.4a66.5 66.5 0 0 0 14.459 21.482q.556.564 1.05 1.181.201.245.427.51L96.41 135.725c-9.39-6.098-18.1-13.616-18.688-27.006-.117-2.668-.357-5.372-.59-7.986-.44-4.956-.895-10.081-.526-15.15.165-2.328.315-4.657.465-6.983zm20.478 67.82.32-.485q.524-.83 1.138-1.595c7.335-8.774 14.68-17.54 22.143-26.445l4.348-5.189 11.858 8.984c-7.551 9.718-15.296 18.621-23.49 28.042a3121 3121 0 0 0-5.119 5.897l-10.896-8.467-.168-.388a2 2 0 0 1-.112-.287c-.015-.023-.02-.048-.025-.07z"/><path d="M37.035 148.643a3.8 3.8 0 0 0 1.517-.327 3.815 3.815 0 0 0 2.269-3.768 4.05 4.05 0 0 0-3.987-3.932h-.046a3.48 3.48 0 0 0-2.578.989 4.22 4.22 0 0 0-.988 3.148 4.13 4.13 0 0 0 1.142 3.019 3.47 3.47 0 0 0 2.466.872q.101.003.205-.001m69.664 1.292h.086c2.232-.045 3.564-1.595 3.567-4.147 0-2.329-1.301-3.763-3.486-3.834a3.95 3.95 0 0 0-2.932 1.165 4.06 4.06 0 0 0-1.188 2.985 3.92 3.92 0 0 0 3.953 3.831"/></g><defs><clipPath id="a"><path fill="#fff" d="M.156.853H144.55v161.459H.156z"/></clipPath></defs></svg>
